X: 414
T: Xiaoguafu shangfeng
%%abc-version 2.0
%%abcx-abcm2ps-target-version 5.9.1 (29 Sep 2008)
%%abc-creator hum2abc beta
%%abcx-conversion-date 2013/10/02 07:52:30
%%abc-edited-by Helmut Schaffrath
%%humdrum-veritas 1939717266
%%humdrum-veritas-data 4126733270
%%continueall 1
%%barnumbers 0
L: 1/8
M: 2/4
K: C
ee2e/ e/ [I:setbarnb 1]| 
ed2d | 
d> c A G | 
E4 | 
A/ A/ A/ A/ d c | 
AG3 | 
G A c A | 
G4 |]  



